static/assets/images/icons/squid-1.svg

<svg width="257" height="256" viewBox="0 0 257 256" fill="none" xmlns="http://www.w3.org/2000/svg">
<path d="M35.6092 101.06C29.1302 103.628 22.861 108.366 17.4771 114.752C12.8593 120.228 9.77985 126.32 8.03675 134.795C5.46784 147.286 9.32769 156.426 12.9482 167.078C12.7501 165.482 12.5862 163.769 12.4515 161.911C11.7146 151.799 16.2181 134.987 24.7647 125.452C30.1998 119.391 40.9828 113.271 52.8099 113.271C57.4465 113.271 61.9245 114.192 66.1313 116.009C71.3207 118.254 75.3585 123.465 77.206 130.315C79.6165 139.24 78.5008 150.517 73.8949 163.828C71.2388 171.512 69.8007 178.15 69.5039 184.125C69.4424 185.503 69.4373 186.88 69.4936 188.212C69.8723 197.39 73.0402 205.203 79.1866 212.094C86.7813 220.612 99.5396 225.5 114.187 225.5C119.023 225.496 123.869 224.969 128.588 223.923C154.182 218.256 164.218 200.813 168.128 187.179L168.129 187.176C168.215 186.861 168.301 186.547 168.384 186.233C171.336 174.814 169.566 162.637 163.113 150.04C158.947 141.9 154.202 135.917 150.016 130.639C143.342 122.224 138.076 115.582 137.785 104.466C137.784 104.395 137.782 104.322 137.781 104.249C137.779 104.162 137.777 104.074 137.775 103.984C137.771 103.799 137.767 103.608 137.764 103.412L137.759 103.251C137.662 97.587 137.498 88.1021 128.92 88.1021C128.583 88.1021 128.224 88.1146 127.866 88.1436C125.056 88.3594 122.979 89.268 121.685 90.8447C120.64 92.1185 118.531 95.944 121.566 103.898C123.757 109.64 128.194 114.872 133.332 120.93C136.372 124.515 139.816 128.577 143.107 133.153C149.688 142.31 154.074 149.078 155.006 159.334C156.004 170.296 152.242 181.847 144.694 191.021C139.75 197.033 129.611 204.049 117.324 204.049C113.501 204.049 109.74 203.356 106.137 201.987C100.845 199.979 96.9041 196.17 95.0464 191.257C91.5715 182.088 93.4292 173.317 95.5838 163.16C96.6022 158.376 97.6513 153.43 98.1836 148.107C99.7138 132.896 93.291 116.125 82.2009 106.375C75.031 100.068 66.0699 96.7364 56.295 96.7364C53.4496 96.7364 50.4711 97.0144 47.4516 97.5704C43.6082 98.2924 39.6215 99.4666 35.6092 101.06Z" fill="black"/>
<path d="M222.007 154.94C228.486 152.372 234.755 147.638 240.139 141.248C244.391 136.206 247.214 130.571 248.978 122.767C251.702 110.711 248.191 101.787 244.946 91.3763C245.03 92.2464 245.106 93.1496 245.175 94.0893C245.911 104.201 241.408 121.013 232.861 130.548C227.427 136.609 216.649 142.729 204.816 142.729C200.184 142.729 195.702 141.808 191.495 139.991C186.306 137.746 182.268 132.531 180.42 125.685C178.01 116.76 179.125 105.483 183.731 92.1724C186.008 85.5878 187.38 79.833 187.918 74.5843C188.148 72.2567 188.22 69.9705 188.127 67.7881C187.748 58.6102 184.581 50.7975 178.434 43.9058C170.84 35.3877 158.081 30.5 143.435 30.5C138.599 30.5 133.752 31.0311 129.033 32.0767C104.12 37.5908 94.0126 54.3242 89.9236 67.3898C89.7905 67.813 89.6626 68.232 89.5449 68.6511C86.1774 80.3889 87.8509 92.94 94.5142 105.952C98.6789 114.094 103.421 120.071 107.606 125.347L107.611 125.353C114.284 133.767 119.55 140.41 119.842 151.525C119.844 151.684 119.848 151.846 119.851 152.011C119.855 152.201 119.859 152.396 119.862 152.596V152.725C119.959 158.401 120.124 167.894 128.701 167.894C129.043 167.894 129.397 167.881 129.755 167.852C132.565 167.637 134.642 166.728 135.937 165.151C136.987 163.873 139.095 160.048 136.059 152.094C133.87 146.357 129.434 141.126 124.298 135.069L124.295 135.066C121.254 131.485 117.815 127.432 114.514 122.843C107.933 113.686 103.547 106.923 102.615 96.6618C101.617 85.6998 105.379 74.1487 112.927 64.975C117.872 58.9671 128.01 51.9509 140.297 51.9509C144.12 51.9509 147.881 52.6438 151.484 54.013C156.776 56.0212 160.712 59.8301 162.575 64.7426C166.049 73.9122 164.192 82.6834 162.038 92.8404L162.036 92.8465C161.023 97.6286 159.975 102.577 159.443 107.893C157.912 123.1 164.335 139.866 175.426 149.621C182.6 155.928 191.556 159.264 201.331 159.264C204.151 159.264 207.104 158.99 210.098 158.442C213.957 157.724 217.964 156.546 222.007 154.94Z" fill="black"/>
</svg>

<svg xmlns="http://www.w3.org/2000/svg" fill="none" viewBox="0 0 257 256"><path fill="#000" d="M35.61 101.06c-6.48 2.568-12.749 7.306-18.133 13.692-4.618 5.476-7.697 11.568-9.44 20.043-2.57 12.491 1.29 21.631 4.911 32.283a102 102 0 0 1-.497-5.167c-.736-10.112 3.767-26.924 12.314-36.459 5.435-6.061 16.218-12.181 28.045-12.181 4.636 0 9.115.921 13.321 2.738 5.19 2.245 9.228 7.456 11.075 14.306 2.41 8.925 1.295 20.202-3.311 33.513-2.656 7.684-4.094 14.322-4.391 20.297a47 47 0 0 0-.01 4.087c.378 9.178 3.546 16.991 9.693 23.882 7.594 8.518 20.353 13.406 35 13.406a67 67 0 0 0 14.401-1.577c25.594-5.667 35.63-23.11 39.54-36.744l.001-.003q.13-.472.255-.943c2.952-11.419 1.182-23.596-5.271-36.193-4.166-8.14-8.911-14.123-13.097-19.401-6.674-8.415-11.94-15.057-12.231-26.173l-.004-.217-.017-.837-.005-.161c-.097-5.664-.261-15.149-8.839-15.149-.337 0-.696.013-1.054.042-2.81.215-4.887 1.124-6.181 2.7-1.045 1.275-3.154 5.1-.119 13.054 2.191 5.742 6.628 10.974 11.766 17.032 3.04 3.585 6.484 7.647 9.775 12.223 6.581 9.157 10.967 15.925 11.899 26.181.998 10.962-2.764 22.513-10.312 31.687-4.944 6.012-15.083 13.028-27.37 13.028-3.823 0-7.584-.693-11.187-2.062-5.292-2.008-9.233-5.817-11.09-10.73-3.475-9.169-1.618-17.94.537-28.097 1.018-4.784 2.067-9.73 2.6-15.053 1.53-15.211-4.893-31.982-15.983-41.732-7.17-6.307-16.131-9.639-25.906-9.639-2.845 0-5.824.278-8.843.834-3.844.722-7.83 1.897-11.843 3.49"/><path fill="#000" d="M222.007 154.94c6.479-2.568 12.748-7.302 18.132-13.692 4.252-5.042 7.075-10.677 8.839-18.481 2.724-12.056-.787-20.98-4.032-31.39q.126 1.304.229 2.712c.736 10.112-3.767 26.924-12.314 36.459-5.434 6.061-16.212 12.181-28.045 12.181-4.632 0-9.114-.921-13.321-2.738-5.189-2.245-9.227-7.46-11.075-14.306-2.41-8.925-1.295-20.202 3.311-33.513 2.277-6.584 3.649-12.339 4.187-17.588.23-2.327.302-4.614.209-6.796-.379-9.178-3.546-16.99-9.693-23.882-7.594-8.518-20.353-13.406-34.999-13.406-4.836 0-9.683.531-14.402 1.577-24.913 5.514-35.02 22.247-39.11 35.313q-.2.634-.378 1.261c-3.368 11.738-1.694 24.289 4.97 37.301 4.164 8.142 8.906 14.119 13.091 19.395l.005.006c6.673 8.414 11.939 15.057 12.231 26.172l.009.486.011.585v.129c.097 5.676.262 15.169 8.839 15.169q.515 0 1.054-.042c2.81-.215 4.887-1.124 6.182-2.701 1.05-1.278 3.158-5.103.122-13.057-2.189-5.737-6.625-10.968-11.761-17.025l-.003-.003c-3.041-3.581-6.48-7.634-9.781-12.223-6.581-9.157-10.967-15.92-11.899-26.181-.998-10.962 2.764-22.513 10.312-31.687 4.945-6.008 15.083-13.024 27.37-13.024 3.823 0 7.584.693 11.187 2.062 5.292 2.008 9.228 5.817 11.091 10.73 3.474 9.17 1.617 17.94-.537 28.097l-.002.007c-1.013 4.782-2.061 9.73-2.593 15.046-1.531 15.207 4.892 31.973 15.983 41.728 7.174 6.307 16.13 9.643 25.905 9.643 2.82 0 5.773-.274 8.767-.822 3.859-.718 7.866-1.896 11.909-3.502"/></svg>
